X:1
T:Title
%%score { ( 1 4 5 ) | ( 2 3 ) }
L:1/8
Q:1/4=192
M:4/2
K:E
V:1 treble nm="Grand Piano"
V:4 treble 
V:5 treble 
V:2 bass 
V:3 bass 
V:1
 [B,EG]4 [A,EF]2 [B,EG]2 [CGc]4 [CEG]4 | [CEB]8 [CEA]4 [B,EG]4 | %2
w: E.~Husband * * * *||
 [A,DF]4 [G,=D^E]2 [^DF]2 [DB]4 [DF]4 |[M:6/4] [EG]12 |[M:2/4] [FG]4 | %5
w: |||
[M:8/4] [EG]4 [Gc]4 e4 d2 G2 | [CEc]8 [EGB]4 [EGc]4 | A4 G2 A2 z4 z2 G2 | E16 | E4 E2 E2 =G4 =D4 | %10
w: |||||
 ^E4 =E12 | ^B4 B2 B2 B4 =B4 | A16 | A4 [DA]2 [DA]2 [DG]4 F4 | B8 E8 | %15
w: |||||
 [CF]4 [CG]2 [CA]2 [DG]4 [DF]4 | E16 |] %17
w: ||
V:2
 E,4 E,2 E,2 E,4 E,4 | F,8 F,4 F,4 | B,,4 z2 A,2 [B,,F,]4 [B,,B,]4 |[M:6/4] [E,B,]12 | %4
[M:2/4] [D,^B,]4 |[M:8/4] [C,C]4 [E,C]4[K:treble] [G,^B,G]4 [G,B,F]4 | A,8 E,4 C,4 | %7
 [F,CE]4 [A,CE]4 [B,E]4 [B,,A,]4 | [E,G,B,]16 | %9
 [^B,,=G,^B,]4 [B,,G,B,]2 [B,,G,B,]2 [B,,=B,=D]4 [B,,B,]4 | [^B,,A,^B,]4 [B,,=G,B,]12 | %11
 [E,G,=D]4 [E,G,D]2 [E,G,D]2 [E,G,D]4 [E,G,D]4 | [^E,A,^B,]16 | %13
 [F,A,B,]4 [B,,A,]2 [B,,A,]2 [B,,B,]4 [A,B,D]4 | [G,B,E]8 [C,G,]8 | %15
 [A,,A,]4 [A,,G,]2 [A,,F,]2 [B,,A,]4 [B,,A,]4 | [E,G,]16 |] %17
V:3
 x16 | x16 | z4 B,,4 z8 |[M:6/4] x12 |[M:2/4] x4 |[M:8/4] x8[K:treble] x8 | x16 | x16 | x16 | x16 | %10
 x16 | x16 | x16 | x16 | x16 | x16 | x16 |] %17
V:4
 x16 | x16 | x16 |[M:6/4] x12 |[M:2/4] x4 |[M:8/4] x16 | x16 | z8 F8 | x16 | x16 | x16 | x16 | %12
 x16 | x16 | x16 | x16 | x16 |] %17
V:5
 x16 | x16 | x16 |[M:6/4] x12 |[M:2/4] x4 |[M:8/4] x16 | x16 | z8 z4 D4 | x16 | x16 | x16 | x16 | %12
 x16 | x16 | x16 | x16 | x16 |] %17

